img/check-button.svg

<svg width="14" height="14" viewBox="0 0 14 14" fill="none" xmlns="http://www.w3.org/2000/svg">
<path fill-rule="evenodd" clip-rule="evenodd" d="M5.29259 9.7209L12.1223 2.79488C12.3917 2.52166 12.8285 2.52166 13.0979 2.79488C13.3674 3.06811 13.3674 3.51109 13.0979 3.78431L5.78043 11.205C5.511 11.4783 5.07418 11.4783 4.80476 11.205L0.90208 7.24732C0.632656 6.9741 0.632656 6.53112 0.90208 6.25789C1.1715 5.98467 1.60833 5.98467 1.87775 6.25789L5.29259 9.7209Z" fill="white"/>
</svg>

<svg width="14" height="14" fill="none" xmlns="http://www.w3.org/2000/svg"><path fill-rule="evenodd" clip-rule="evenodd" d="M5.293 9.72l6.83-6.925a.683.683 0 01.975 0c.27.273.27.716 0 .99l-7.318 7.42a.683.683 0 01-.975 0L.902 7.247a.707.707 0 010-.99.683.683 0 01.976 0l3.415 3.464z" fill="#fff"/></svg>
